X: 4859
T: Braes Of Auchtertyre, The
R: strathspey
M: 4/4
K: Cmajor
G,|C2 CF EGGA|cded cAGc|~A3 ^G ~A3 a|gcfe ~d3 c|
C ~F3 E ~G3|cded cAGc|AcGc FcEc|dBcE D2 C||
f|efga gecg|afeg edcG|~A2 ag ~a3 c’|ecfe ~d3 f|
efga g ~e3|afdf e ~c3|AcGc FcEc|dBcE D2 C||

